X:1
T:Hinba
C:Aidan O'Rourke
Z:robin.beech@mcgill.ca
R:reel
M:7/8
L:1/8
K:Edor
BBfd eed | e2fd cBA | BBfd aaf | e2fd fef | BBfd eed | 
e2fd cBA |1 BBfd aaf | e2fd afd :|2 a2bf2 de- | eff/e/ def |: 
a2 fa2be- | e2dd/e/ fef | dcB2 dc2 | dB3 AAf |
a2 fa2be- | e2dd/e/ fef | dcd2 Bd2 | eB2A dAB B2 ::
d2B B2de2 | ddc/d/ efa | f2a e2fAB | AdAB B3 |
d2B B2de2 | ddc/d/ efa | abfa2 ef | aBAA fef :|
